icon-themes/sifr_svg/cmd/lc_cylinder.svg

<svg viewBox="0 0 24 24" xmlns="http://www.w3.org/2000/svg"><g fill="#555753"><path d="m4 4v16h16v-16z" opacity=".35"/><path d="m12 2a10 4.5 0 0 0 -9.9980469 4.4863281h-.0019531v.0136719.5 10c0 2.761375 4.4771525 5 10 5 5.522847 0 10-2.238625 10-5v-10-.4863281h-.001953a10 4.5 0 0 0 .001953-.0136719 10 4.5 0 0 0 -10-4.5zm0 2c2.518226 0 4.787519.4844617 6.25 1.1425781.73124.3290582 1.250815.7011852 1.507812.9746094.256998.2734242.242188.3619812.242188.3828125s.01481.1093883-.242188.3828125c-.256997.2734242-.776572.6455512-1.507812.9746094-1.462481.6581164-3.731774 1.1425781-6.25 1.1425781-2.5182257 0-4.787519-.4844617-6.25-1.1425781-.7312405-.3290582-1.2508154-.7011852-1.5078125-.9746094s-.2421875-.3619812-.2421875-.3828125-.0148096-.1093883.2421875-.3828125.776572-.6455512 1.5078125-.9746094c1.462481-.6581164 3.7317743-1.1425781 6.25-1.1425781zm-8 5.1914062a10 4.5 0 0 0 8 1.8085938 10 4.5 0 0 0 8-1.8085938v7.8085938c0 .299788-.378531 1.023245-1.824219 1.746094-1.445687.722848-3.684583 1.253906-6.175781 1.253906-2.4911978 0-4.7300938-.531058-6.1757812-1.253906-1.4456876-.722849-1.8242188-1.446306-1.8242188-1.746094z"/></g></svg>

<svg xmlns="http://www.w3.org/2000/svg" viewBox="0 0 24 24">
  <path
     style="opacity:0.35;fill:#555753"
     d="M 4 4 L 4 20 L 20 20 L 20 4 L 4 4 z "
     />
  <path
     style="fill:#555753"
     d="M 12 2 A 10 4.5 0 0 0 2.0019531 6.4863281 L 2 6.4863281 L 2 6.5 L 2 7 L 2 17 C 2 19.761375 6.4771525 22 12 22 C 17.522847 22 22 19.761375 22 17 L 22 7 L 22 6.5136719 L 21.998047 6.5136719 A 10 4.5 0 0 0 22 6.5 A 10 4.5 0 0 0 12 2 z M 12 4 C 14.518226 4 16.787519 4.4844617 18.25 5.1425781 C 18.98124 5.4716363 19.500815 5.8437633 19.757812 6.1171875 C 20.01481 6.3906117 20 6.4791687 20 6.5 C 20 6.5208313 20.01481 6.6093883 19.757812 6.8828125 C 19.500815 7.1562367 18.98124 7.5283637 18.25 7.8574219 C 16.787519 8.5155383 14.518226 9 12 9 C 9.4817743 9 7.212481 8.5155383 5.75 7.8574219 C 5.0187595 7.5283637 4.4991846 7.1562367 4.2421875 6.8828125 C 3.9851904 6.6093883 4 6.5208313 4 6.5 C 4 6.4791687 3.9851904 6.3906117 4.2421875 6.1171875 C 4.4991846 5.8437633 5.0187595 5.4716363 5.75 5.1425781 C 7.212481 4.4844617 9.4817743 4 12 4 z M 4 9.1914062 A 10 4.5 0 0 0 12 11 A 10 4.5 0 0 0 20 9.1914062 L 20 17 C 20 17.299788 19.621469 18.023245 18.175781 18.746094 C 16.730094 19.468942 14.491198 20 12 20 C 9.5088022 20 7.2699062 19.468942 5.8242188 18.746094 C 4.3785312 18.023245 4 17.299788 4 17 L 4 9.1914062 z "
     />
</svg>
